X:5
T:A Finnish Polka
M:2/4
L:1/8
R:Polka
C:Traditional
K:Bm
B>c Bc | dB Bd | cA Ac | d/c/B/A/ BF |
B>c Bc | dB B2 | ee dc | BA B2 :|
|: fd/d/ | df | ed/d/ cd | e/f/e/d/ dc | Bc de |
fd/d/ | df | ed/d/ cd | e/f/e/d/ dc | BA B2 :|

